X:184
T: Venus, du und dein Kind
N: A0219C
O: Europa, Mitteleuropa, Deutschland
N: Als Choral. Zuerst bei H. Schein 1627.
R: Romanze, Ballade, Lied
M: 4/2
L: 1/2
K: D
D | DE=FG | A2z
A | AG=FF | E2z
E | =FGAA | G2A
A | =FGAA | G2=F2 |
AdA2 | AAG2 |
GGAG | =FGE2 | D3

@@@ Tune index: 184
